src/assets/tokens/GNO.svg

<svg height="50" viewBox="0 0 50 50" width="50" xmlns="http://www.w3.org/2000/svg"><g fill="#00a6c4" fill-rule="evenodd" transform="translate(0 15)"><path d="m32.9684987 4.9070264-.7177808.71675002c.5783439.89446045.7478529 2.0377286.3596142 3.11705514-.6630325 1.84249004-2.6975344 2.80089214-4.5437735 2.13974634-.2607779-.0927613-.5039206-.2137514-.7274539-.3569964l-2.312915 2.3068217-2.0366735-2.0318859c-.9303249.6209689-2.132417.8110212-3.2666659.4047885-1.8999345-.6797243-2.8867186-2.76655796-2.2061166-4.6609103.1040348-.28898457.2414318-.55564867.4050843-.79966404l-.8679436-.86590336-.1677323.27349154c-.9099918 1.48207992-1.3928553 3.1853952-1.3970009 4.92626136-.0096073 5.2323803 4.2486464 9.4968394 9.4930261 9.5067523h.0185565c5.2337855 0 9.5003304-4.2486378 9.5102008-9.4699891.0034876-1.74112881-.4725982-3.44693873-1.3749569-4.93210413z"/><path d="m18.9964493 6.81523056c-.2507759.32469734-.4015967.73086445-.4015967 1.17241607 0 1.06383351.8638638 1.92566666 1.9302039 1.92566666.4429211 0 .8493871-.15053195 1.1751785-.40071828z"/><path d="m28.5104666 9.35457913c.3086826.20790872.6792202.3288332 1.0798298.3288332 1.0652873 0 1.9298749-.86216139 1.9298749-1.92566665 0-.39894577-.1216042-.7694001-.3296738-1.07689755z"/><path d="m25.0413244 11.3915856-7.8490002-7.85976341.3058531-.32410651c1.9519189-2.06864903 4.5930601-3.20771568 7.4360195-3.20771568h.0192804c2.8729657.00551447 5.626038 1.22775774 7.5552549 3.35378353l.2947981.32410651z"/><path d="m18.4815396 3.52118714 6.5622195 6.57121516 6.4802946-6.43958998c-1.7342421-1.73738683-4.1047349-2.72907266-6.5726164-2.73393065h-.0172405c-2.4375462 0-4.7111768.9202603-6.4526572 2.60230547z"/><path d="m16.3873542 16.4521638-.9241395-.0604623c-3.9069306-.2532718-9.29634053-1.213315-12.78377608-4.3476357-2.1365626-1.919824-2.5453976-3.74445762-2.56158517-3.82146328l-.11785345-.55223496h14.2180216l-.0706067.51855729c-.0647503.47936515-.0978493.96385088-.0991654 1.43947406-.0038166 2.16272329.6275647 4.25612179 1.8261691 6.05436479z"/><path d="m33.6102111 16.4521638.5129356-.7694001c1.1920241-1.7868858 1.8247214-3.8661699 1.8286038-6.01241541.000658-.49347957-.0323752-.99168583-.0977835-1.48135779l-.0702778-.51855729h14.2163108l-.1174586.55223496c-.0161876.07700565-.4254174 1.90163933-2.5622432 3.82146323-3.4874356 3.1342551-8.8782932 4.0942983-12.7858818 4.3476358z"/></g></svg>

<?xml version="1.0" encoding="UTF-8"?>
<svg width="50px" height="50px" viewBox="0 0 50 50" version="1.1" xmlns="http://www.w3.org/2000/svg" xmlns:xlink="http://www.w3.org/1999/xlink">
    <!-- Generator: Sketch 46 (44423) - http://www.bohemiancoding.com/sketch -->
    <title>GNO</title>
    <desc>Created with Sketch.</desc>
    <defs></defs>
    <g id="Welcome" stroke="none" stroke-width="1" fill="none" fill-rule="evenodd">
        <g id="GNO" fill="#00A6C4">
            <g id="GNO-icon" transform="translate(0.000000, 15.000000)">
                <path d="M32.9684987,4.9070264 L32.2507179,5.62377642 C32.8290618,6.51823687 32.9985708,7.66150502 32.6103321,8.74083156 C31.9472996,10.5833216 29.9127977,11.5417237 28.0665586,10.8805779 C27.8057807,10.7878166 27.562638,10.6668265 27.3391047,10.5235815 L25.0261897,12.8304032 L22.9895162,10.7985173 C22.0591913,11.4194862 20.8570992,11.6095385 19.7228503,11.2033058 C17.8229158,10.5235815 16.8361317,8.43674784 17.5167337,6.5423955 C17.6207685,6.25341093 17.7581655,5.98674683 17.921818,5.74273146 L17.0538744,4.8768281 L16.8861421,5.15031964 C15.9761503,6.63239956 15.4932868,8.33571484 15.4891412,10.076581 C15.4795339,15.3089613 19.7377876,19.5734204 24.9821673,19.5833333 L25.0007238,19.5833333 C30.2345093,19.5833333 34.5010542,15.3346955 34.5109246,10.1133442 C34.5144122,8.37221539 34.0383264,6.66640547 33.1359677,5.18124007 L32.9684987,4.9070264 Z" id="Path"></path>
                <path d="M18.9964493,6.81523056 C18.7456734,7.1399279 18.5948526,7.54609501 18.5948526,7.98764663 C18.5948526,9.05148014 19.4587164,9.91331329 20.5250565,9.91331329 C20.9679776,9.91331329 21.3744436,9.76278134 21.700235,9.51259501 L18.9964493,6.81523056 Z" id="Path"></path>
                <path d="M28.5104666,9.35457913 C28.8191492,9.56248785 29.1896868,9.68341233 29.5902964,9.68341233 C30.6555837,9.68341233 31.5201713,8.82125094 31.5201713,7.75774568 C31.5201713,7.35879991 31.3985671,6.98834558 31.1904975,6.68084813 L28.5104666,9.35457913 Z" id="Path"></path>
                <path d="M25.0413244,11.3915856 L17.1923242,3.53182219 L17.4981773,3.20771568 C19.4500962,1.13906665 22.0912374,0 24.9341968,0 L24.9534772,0 C27.8264429,0.00551447172 30.5795152,1.22775774 32.5087321,3.35378353 L32.8035302,3.67789004 L25.0413244,11.3915856 Z" id="Path"></path>
                <path d="M18.4815396,3.52118714 L25.0437591,10.0924023 L31.5240537,3.65281232 C29.7898116,1.91542549 27.4193188,0.923739661 24.9514373,0.918881674 L24.9341968,0.918881674 C22.4966506,0.918881674 20.22302,1.83914197 18.4815396,3.52118714 Z" id="Path"></path>
                <path d="M16.3873542,16.4521638 L15.4632147,16.3917015 C11.5562841,16.1384297 6.16687417,15.1783865 2.67943862,12.0440658 C0.542876019,10.1242418 0.134041024,8.29960818 0.117853448,8.22260252 L0,7.67036756 L14.2180216,7.67036756 L14.1474149,8.18892485 C14.0826646,8.66829 14.0495656,9.15277573 14.0482495,9.62839891 C14.0444329,11.7911222 14.6758142,13.8845207 15.8744186,15.6827637 L16.3873542,16.4521638 Z" id="Path"></path>
                <path d="M33.6102111,16.4521638 L34.1231467,15.6827637 C35.3151708,13.8958779 35.9478681,11.8165938 35.9517505,9.67034829 C35.9524085,9.17686872 35.9193753,8.67866246 35.853967,8.1889905 L35.7836892,7.67043321 L50,7.67043321 L49.8825414,8.22266817 C49.8663538,8.29967382 49.457124,10.1243075 47.3202982,12.0441314 C43.8328626,15.1783865 38.442005,16.1384297 34.5344164,16.3917672 L33.6102111,16.4521638 Z" id="Path"></path>
            </g>
        </g>
    </g>
</svg>
